packages/assets/static/images/icons/globe.svg

<svg width="24" height="24" viewBox="0 0 24 24" xmlns="http://www.w3.org/2000/svg">
<path d="M12 2.25C10.0716 2.25 8.18657 2.82183 6.58319 3.89317C4.97982 4.96451 3.73013 6.48726 2.99218 8.26884C2.25422 10.0504 2.06114 12.0108 2.43735 13.9021C2.81355 15.7934 3.74215 17.5307 5.10571 18.8943C6.46928 20.2579 8.20656 21.1865 10.0979 21.5627C11.9892 21.9389 13.9496 21.7458 15.7312 21.0078C17.5127 20.2699 19.0355 19.0202 20.1068 17.4168C21.1782 15.8134 21.75 13.9284 21.75 12C21.747 9.41505 20.7188 6.93683 18.891 5.109C17.0632 3.28116 14.585 2.25298 12 2.25ZM20.25 12C20.2507 12.7608 20.1456 13.5181 19.9378 14.25H16.3275C16.5575 12.7588 16.5575 11.2412 16.3275 9.75H19.9378C20.1456 10.4819 20.2507 11.2392 20.25 12ZM9.5625 15.75H14.4375C13.9572 17.3237 13.1235 18.7667 12 19.9688C10.877 18.7664 10.0433 17.3235 9.5625 15.75ZM9.19688 14.25C8.93939 12.7611 8.93939 11.2389 9.19688 9.75H14.8106C15.0681 11.2389 15.0681 12.7611 14.8106 14.25H9.19688ZM3.75 12C3.74935 11.2392 3.85442 10.4819 4.06219 9.75H7.6725C7.4425 11.2412 7.4425 12.7588 7.6725 14.25H4.06219C3.85442 13.5181 3.74935 12.7608 3.75 12ZM14.4375 8.25H9.5625C10.0428 6.67632 10.8765 5.2333 12 4.03125C13.1231 5.23361 13.9567 6.67653 14.4375 8.25ZM19.3434 8.25H16.0041C15.5832 6.70585 14.8738 5.25532 13.9134 3.975C15.0738 4.25375 16.1602 4.7801 17.098 5.51799C18.0359 6.25588 18.8032 7.18784 19.3472 8.25H19.3434ZM10.0866 3.975C9.12619 5.25532 8.41683 6.70585 7.99594 8.25H4.65282C5.19682 7.18784 5.96407 6.25588 6.90196 5.51799C7.83985 4.7801 8.92621 4.25375 10.0866 3.975ZM4.65282 15.75H7.99594C8.41683 17.2941 9.12619 18.7447 10.0866 20.025C8.92621 19.7463 7.83985 19.2199 6.90196 18.482C5.96407 17.7441 5.19682 16.8122 4.65282 15.75ZM13.9134 20.025C14.8738 18.7447 15.5832 17.2941 16.0041 15.75H19.3472C18.8032 16.8122 18.0359 17.7441 17.098 18.482C16.1602 19.2199 15.0738 19.7463 13.9134 20.025Z"/>
</svg>

<svg viewBox="0 0 24 24" xmlns="http://www.w3.org/2000/svg" aria-hidden="true" fill="currentColor"><path d="M12 2.25A9.75 9.75 0 1 0 21.75 12 9.76 9.76 0 0 0 12 2.25M20.25 12a8.2 8.2 0 0 1-.312 2.25h-3.61a14.8 14.8 0 0 0 0-4.5h3.61A8.2 8.2 0 0 1 20.25 12M9.563 15.75h4.874A10.8 10.8 0 0 1 12 19.969a10.8 10.8 0 0 1-2.437-4.219m-.366-1.5a13.2 13.2 0 0 1 0-4.5h5.614a13.2 13.2 0 0 1 0 4.5zM3.75 12c0-.76.104-1.518.312-2.25h3.61a14.8 14.8 0 0 0 0 4.5h-3.61A8.2 8.2 0 0 1 3.75 12m10.688-3.75H9.561A10.8 10.8 0 0 1 12 4.031a10.8 10.8 0 0 1 2.438 4.219m4.905 0h-3.339a12.7 12.7 0 0 0-2.09-4.275 8.28 8.28 0 0 1 5.433 4.275zm-9.256-4.275c-.96 1.28-1.67 2.73-2.091 4.275H4.653a8.28 8.28 0 0 1 5.434-4.275M4.653 15.75h3.343a12.7 12.7 0 0 0 2.09 4.275 8.28 8.28 0 0 1-5.433-4.275m9.26 4.275c.96-1.28 1.67-2.73 2.091-4.275h3.343a8.28 8.28 0 0 1-5.434 4.275"/></svg>
